X:1
T:I Vow To Thee My Country
T:Theme from Jupiter (The Planets) / Thaxted
T:Written by Gustav Holst
T:Lyrics by Sir Cecil Spring-Rice
T:Arranged by Joe O'Dell © 2011
Z:Arranged by Joe O'Dell © 2011
%%score { 1 | 2 }
L:1/8
M:3/4
K:C
V:1 treble nm="Piano"
V:2 bass 
V:1
 z4[Q:1/4=80] EG | A2- Ac B>G | cd c2 B2 | AB A2 G2 | E4 EG | A2- Ac B>G | cd e2 e2 | ed c2 d2 | %8
w: I- *|vow- * to thee my-|co- un- try all-|earth- ly things- a-|bove. e- n-|ti- re and whole and|p- er- fect the|ser- vice of my|
 c4 ge | d2 d2 ce | d2 G2 ge | d2 d2 cg | a4 ab | c'2 b2 a2 | g2 c'2 e2 | dc d2 e2 | g4 EG | %17
w: love. Th- e|love that asks no|ques- tion, th- e|love that stands the|test, th- at|lays upon- the|al- tar- the,|dear- est- and the|best. I- *|
 A2- Ac B>G | cd c2 B2 | AB A2 G2 | E4 EG | A2- Ac B>G | cd e2 e2 | ed c2 d2 | c6 |] %25
w: vow- * to thee my|coun- tr- y all|earth- ly things a-|bove. e- n-|ti- re and whole and|pe- r- fect the|ser- vice of my|love.|
V:2
 z6 | [F,A,C]4 [D,F,G,]2 | [C,E,G,]4 [E,G,C]2 | [F,A,C]4 [G,B,D]2 | [A,C]4 z2 | %5
 [F,A,C]4 [D,F,G,]2 | [C,E,G,]4 [E,G,C]2 | [F,A,C]4 [F,G,CD]2 | [C,E,G,]4 z2 | [G,B,D]4 [A,CE]2 | %10
 [G,B,D]4 z2 | [G,B,D]4 [G,CE]2 | [F,A,C]2 E,2 [D,F,A,]2 | [A,CE]2 [G,CE]2 [F,A,C]2 | %14
 [E,G,C]2 [D,F,A,]2 [C,E,G,]2 | [F,A,C]2 [D,F,A,]2 [C,E,A,]2 | [B,,D,G,]2 [A,,C,E,]2 z2 | %17
 [F,A,C]4 [D,F,G,]2 | [C,E,G,]4 [E,G,C]2 | [F,A,C]4 [G,B,D]2 | [A,C]4 z2 | [F,A,C]4 [D,F,G,]2 | %22
 [C,E,G,]4 [E,G,C]2 | [F,A,C]4 [F,G,CD]2 | [C,E,G,]6 |] %25

